X:1
T:Whale Fishing Song
M:4/4
L:1/8
K:C
E-E| E2 A2 A2 A2|c-cB-G A2A-A| e2 ee d2 B2| A4 z2 cd| e2 e3/2 c/2 d2B-B|\
 c3/2- c/2B-A G2A-B| c2 c2 B2B-B| A2 G2 E2c-c| e2 e2 d2B-B| A4 z2|\


